src/assets/icons/letters,fancy,serif-n.svg

<svg width="48" height="48" viewBox="0 0 48 48" fill="none" xmlns="http://www.w3.org/2000/svg">
<path d="M31.5918 37.38L14.7578 13.402H14.6058V29.742C14.6058 31.0087 14.6438 32.0093 14.7198 32.744C14.8212 33.4787 15.0112 34.0487 15.2898 34.454C15.5938 34.8593 15.9992 35.1253 16.5058 35.252C17.0378 35.3787 17.7218 35.4547 18.5578 35.48V37H7.27184V35.48C8.20917 35.4547 8.9565 35.3787 9.51384 35.252C10.0965 35.1 10.5398 34.834 10.8438 34.454C11.1732 34.074 11.3885 33.542 11.4898 32.858C11.5912 32.1487 11.6418 31.1987 11.6418 30.008V14.732C11.6418 13.668 11.5912 12.794 11.4898 12.11C11.3885 11.4007 11.1985 10.8433 10.9198 10.438C10.6412 10.0327 10.2358 9.754 9.70384 9.602C9.19717 9.42467 8.51317 9.31067 7.65184 9.26V7.74H18.2538L33.5678 29.704H33.7198V14.998C33.7198 13.7567 33.6692 12.7687 33.5678 12.034C33.4918 11.274 33.3018 10.6913 32.9978 10.286C32.7192 9.88067 32.3138 9.61467 31.7818 9.488C31.2752 9.36133 30.6038 9.28533 29.7678 9.26V7.74H41.0538V9.26C40.1165 9.28533 39.3565 9.374 38.7738 9.526C38.2165 9.65266 37.7732 9.906 37.4438 10.286C37.1398 10.666 36.9372 11.2107 36.8358 11.92C36.7345 12.6293 36.6838 13.5667 36.6838 14.732V37.38H31.5918Z" fill="black"/>
</svg>

<svg xmlns="http://www.w3.org/2000/svg" width="48" height="48" fill="none" viewBox="0 0 48 48">
  <path fill="#000" d="M31.592 37.38L14.758 13.402h-.152v16.34c0 1.267.038 2.267.114 3.002.101.735.291 1.305.57 1.71.304.405.71.671 1.216.798.532.127 1.216.203 2.052.228V37H7.272v-1.52c.937-.025 1.684-.101 2.242-.228.583-.152 1.026-.418 1.33-.798.33-.38.545-.912.646-1.596.101-.71.152-1.66.152-2.85V14.732c0-1.064-.05-1.938-.152-2.622-.101-.71-.292-1.267-.57-1.672-.279-.405-.684-.684-1.216-.836-.507-.177-1.19-.291-2.052-.342V7.74h10.602l15.314 21.964h.152V14.998c0-1.241-.05-2.23-.152-2.964-.076-.76-.266-1.343-.57-1.748-.279-.405-.684-.671-1.216-.798-.507-.127-1.178-.203-2.014-.228V7.74h11.286v1.52c-.938.025-1.698.114-2.28.266-.557.127-1 .38-1.33.76-.304.38-.507.925-.608 1.634-.102.71-.152 1.647-.152 2.812V37.38h-5.092z"/>
</svg>
